X:10
T:The Black Nag
T:The Galloping Nag
M:6/8
L:1/8
K:G
E | "Am" A>B-A "G" B>A-B | "Am" c>B-c "G" B>c-d | "Am" e>d-c "E" B>A-B | "Am" A3-A z E |
"Am" A>B-A "G" B>A-B | "Am" c>B-c "G" B>c-d | "Am" e>d-c "E" B>A-B | "Am" A3-A z ||
|: A | "Em" BGE BGE | BGE BGE | "Am" ecA ecA | ecA ecA |
"Em" BGE BGE | BGE B>c-d | "Am" e>d-c "E" B>A-B | "Am" A3 - A z :|
%
%
